svgs/sharp-regular/tty-answer.svg

<svg xmlns="http://www.w3.org/2000/svg" viewBox="0 0 640 512"><!--! Font Awesome Pro 6.6.0 by @fontawesome - https://fontawesome.com License - https://fontawesome.com/license (Commercial License) Copyright 2024 Fonticons, Inc. --><path d="M272.4 369.2l31.9 18.4 26-26 33.2-33.2L457.7 366l-17.8 97.9C225.4 459.7 52.3 286.6 48.1 72L146 54.2l37.7 94.2-33.2 33.2-26 26 18.4 31.9c31 53.8 75.8 98.6 129.6 129.6zM512 336L352 272l-55.6 55.6c-46.5-26.8-85.2-65.5-112-112L240 160 176 0 0 32 0 64C0 311.4 200.6 512 448 512l32 0 32-176zM352 64l-64 0 0 64 64 0 0-64zm-64 96l0 64 64 0 0-64-64 0zM448 64l-64 0 0 64 64 0 0-64zm32 0l0 64 64 0 0-64-64 0zm160 0l-64 0 0 64 64 0 0-64zm-64 96l0 64 64 0 0-64-64 0zm-32 0l-160 0 0 64 160 0 0-64z"/></svg>

<svg xmlns="http://www.w3.org/2000/svg" viewBox="0 0 640 512"><!--! Font Awesome Pro 6.4.2 by @fontawesome - https://fontawesome.com License - https://fontawesome.com/license (Commercial License) Copyright 2023 Fonticons, Inc. --><path d="M272.4 369.2l31.9 18.4 26-26 33.2-33.2L457.7 366l-17.8 97.9C225.4 459.7 52.3 286.6 48.1 72L146 54.2l37.7 94.2-33.2 33.2-26 26 18.4 31.9c31 53.8 75.8 98.6 129.6 129.6zM512 336L352 272l-55.6 55.6c-46.5-26.8-85.2-65.5-112-112L240 160 176 0 0 32 0 64C0 311.4 200.6 512 448 512h32l32-176zM352 64H288v64h64V64zm-64 96v64h64V160H288zM448 64H384v64h64V64zm32 0v64h64V64H480zm160 0H576v64h64V64zm-64 96v64h64V160H576zm-32 0H384v64H544V160z"/></svg>
